src/assets/svgs/s3.svg

<svg width="52" height="52" viewBox="0 0 52 52" fill="none" xmlns="http://www.w3.org/2000/svg">
<path d="M42.0984 28.1233C42.185 27.43 42.25 26.7367 42.25 26C42.25 25.2633 42.185 24.57 42.0984 23.8767L46.67 20.3017C47.0817 19.9767 47.19 19.3917 46.93 18.915L42.5967 11.4183C42.3367 10.9417 41.7517 10.7683 41.275 10.9417L35.88 13.1083C34.7534 12.2417 33.54 11.5267 32.2184 10.985L31.395 5.24334C31.33 4.72334 30.875 4.33334 30.3334 4.33334H21.6667C21.125 4.33334 20.67 4.72334 20.605 5.24334L19.7817 10.985C18.46 11.5267 17.2467 12.2633 16.12 13.1083L10.725 10.9417C10.2267 10.7467 9.66335 10.9417 9.40335 11.4183L5.07002 18.915C4.78835 19.3917 4.91835 19.9767 5.33002 20.3017L9.90169 23.8767C9.81502 24.57 9.75002 25.285 9.75002 26C9.75002 26.715 9.81502 27.43 9.90169 28.1233L5.33002 31.6983C4.91835 32.0233 4.81002 32.6083 5.07002 33.085L9.40335 40.5817C9.66335 41.0583 10.2484 41.2317 10.725 41.0583L16.12 38.8917C17.2467 39.7583 18.46 40.4733 19.7817 41.015L20.605 46.7567C20.67 47.2767 21.125 47.6667 21.6667 47.6667H30.3334C30.875 47.6667 31.33 47.2767 31.395 46.7567L32.2184 41.015C33.54 40.4733 34.7534 39.7367 35.88 38.8917L41.275 41.0583C41.7734 41.2533 42.3367 41.0583 42.5967 40.5817L46.93 33.085C47.19 32.6083 47.0817 32.0233 46.67 31.6983L42.0984 28.1233ZM26 33.5833C21.8184 33.5833 18.4167 30.1817 18.4167 26C18.4167 21.8183 21.8184 18.4167 26 18.4167C30.1817 18.4167 33.5834 21.8183 33.5834 26C33.5834 30.1817 30.1817 33.5833 26 33.5833Z" fill="white"/>
</svg>

<svg width="52" height="52" fill="none" xmlns="http://www.w3.org/2000/svg"><path d="M42.098 28.123c.087-.693.152-1.386.152-2.123 0-.737-.065-1.43-.152-2.123l4.572-3.575c.412-.325.52-.91.26-1.387l-4.333-7.497c-.26-.476-.845-.65-1.322-.476l-5.395 2.166a15.833 15.833 0 0 0-3.662-2.123l-.823-5.742c-.065-.52-.52-.91-1.062-.91h-8.666c-.542 0-.997.39-1.062.91l-.823 5.742c-1.322.542-2.535 1.278-3.662 2.123l-5.395-2.166a1.057 1.057 0 0 0-1.322.476L5.07 18.915a1.068 1.068 0 0 0 .26 1.387l4.572 3.575A17.181 17.181 0 0 0 9.75 26c0 .715.065 1.43.152 2.123L5.33 31.698c-.412.325-.52.91-.26 1.387l4.333 7.497c.26.476.845.65 1.322.476l5.395-2.166a15.834 15.834 0 0 0 3.662 2.123l.823 5.742c.065.52.52.91 1.062.91h8.666c.542 0 .997-.39 1.062-.91l.823-5.742c1.322-.542 2.535-1.278 3.662-2.123l5.395 2.166c.498.195 1.062 0 1.322-.476l4.333-7.497c.26-.477.152-1.062-.26-1.387l-4.572-3.575ZM26 33.583c-4.182 0-7.583-3.401-7.583-7.583s3.401-7.583 7.583-7.583 7.583 3.401 7.583 7.583-3.401 7.583-7.583 7.583Z" fill="#fff"/></svg>
